packages/ffe-icons/icons/open/300/sm/mosque.svg

<svg xmlns="http://www.w3.org/2000/svg" height="20" viewBox="0 -960 960 960" width="20"><path d="M58-217.999V-639.77q-18-8.846-27-23.143T22-696q0-18.307 16.77-48.499Q55.539-774.691 84-801.768q28.461 27.077 45.23 57.269 16.769 30.192 16.769 48.499 0 19.17-9 33.277t-27 22.953v217.771h92.002V-504q0-28.231 20.807-46.846 20.808-18.615 47.116-15.923h21.847q-19.001-23.153-30.385-49.269-11.385-26.116-11.385-55.962 0-42.581 20.851-78.776 20.852-36.194 56.918-57.762l120.385-72.846q15.054-8.538 31.872-8.538 16.819 0 31.818 8.538l120.385 72.846q36.066 21.568 56.918 57.762 20.851 36.195 20.851 78.776 0 29.846-11.385 55.962-11.384 26.116-30.385 49.269h20.847q27.308-2.692 48.116 15.423 20.807 18.115 20.807 47.346v82.001h92.002V-639.77q-18-8.846-27-23.143t-9-33.087q0-18.307 16.269-48.499 16.269-30.192 45.73-57.269 28.461 27.077 45.23 57.269 16.769 30.192 16.769 48.499 0 19.17-9.5 33.277t-26.5 22.953v421.771q0 26.188-18.905 45.093-18.905 18.905-45.093 18.905H570.154q-13.665 0-22.909-9.244t-9.244-22.909V-312q0-24.246-16.877-41.124-16.878-16.877-41.124-16.877-24.246 0-41.124 16.877-16.877 16.878-16.877 41.124v125.846q0 13.665-9.244 22.909t-22.909 9.244H121.999q-26.188 0-45.093-18.905-18.905-18.905-18.905-45.093Zm349-348h146q43.846 0 74.424-30.867 30.577-30.866 30.577-75.075 0-28.367-13.654-53.367-13.654-25-37.962-39.154L480-839.924l-126.385 75.462q-24.308 14.154-37.962 39.154-13.654 25-13.654 53.367 0 44.209 30.577 75.075 30.578 30.867 74.424 30.867Zm-297.001 360h260.002V-312q0-45.833 31.57-77.916t78.384-32.083q46.814 0 78.429 32.083 31.615 32.083 31.615 77.916v106.001h260.002v-164.002h-80.002q-26.188 0-45.093-18.905-18.905-18.905-18.905-45.093V-504q0-4.231-2.885-7.116T696-514.001H264q-4.231 0-7.116 2.885T253.999-504v70.001q0 26.188-18.905 45.093-18.905 18.905-45.093 18.905h-80.002v164.002ZM480-514.001Zm0-51.998Zm0-.77Z"/></svg>

<svg xmlns="http://www.w3.org/2000/svg" height="20" viewBox="0 -960 960 960" width="20"><path d="M58-218v-421.77q-18-8.85-27-23.14-9-14.3-9-33.09 0-18.31 16.77-48.5T84-801.77q28.46 27.08 45.23 57.27Q146-714.31 146-696q0 19.17-9 33.28-9 14.1-27 22.95V-422h92v-82q0-28.23 20.81-46.85 20.81-18.61 47.11-15.92h21.85q-19-23.15-30.38-49.27Q250-642.15 250-672q0-42.58 20.85-78.78 20.85-36.19 56.92-57.76l120.38-72.84q15.06-8.54 31.88-8.54t31.82 8.54l120.38 72.84q36.07 21.57 56.92 57.76Q710-714.58 710-672q0 29.85-11.39 55.96-11.38 26.12-30.38 49.27h20.85q27.3-2.69 48.11 15.42Q758-533.23 758-504v82h92v-217.77q-18-8.85-27-23.14-9-14.3-9-33.09 0-18.31 16.27-48.5T876-801.77q28.46 27.08 45.23 57.27Q938-714.31 938-696q0 19.17-9.5 33.28-9.5 14.1-26.5 22.95V-218q0 26.19-18.91 45.09Q864.19-154 838-154H570.15q-13.66 0-22.91-9.24-9.24-9.25-9.24-22.91V-312q0-24.25-16.88-41.12Q504.25-370 480-370q-24.25 0-41.12 16.88Q422-336.25 422-312v125.85q0 13.66-9.24 22.91-9.25 9.24-22.91 9.24H122q-26.19 0-45.09-18.91Q58-191.81 58-218Zm349-348h146q43.85 0 74.42-30.87Q658-627.73 658-671.94q0-28.37-13.65-53.37-13.66-25-37.96-39.15L480-839.92l-126.39 75.46q-24.3 14.15-37.96 39.15-13.65 25-13.65 53.37 0 44.21 30.58 75.07Q363.15-566 407-566ZM110-206h260v-106q0-45.83 31.57-77.92Q433.14-422 479.95-422q46.82 0 78.43 32.08Q590-357.83 590-312v106h260v-164h-80q-26.19 0-45.09-18.91Q706-407.81 706-434v-70q0-4.23-2.88-7.12Q700.23-514 696-514H264q-4.23 0-7.12 2.88Q254-508.23 254-504v70q0 26.19-18.91 45.09Q216.19-370 190-370h-80v164Zm370-308Zm0-52Zm0-.77Z"/></svg>
